picto/ladies-toilets.svg

<svg class="color-immutable" width="24" height="24" viewBox="0 0 24 24" fill="none" xmlns="http://www.w3.org/2000/svg"><path d="M0 22.5V1.5C0 0.675 0.675 0 1.5 0H22.5C23.325 0 24 0.675 24 1.5V22.5C24 23.325 23.325 24 22.5 24H1.5C0.675 24 0 23.325 0 22.5Z" fill="#2D327D"/><path d="M10.212 12.704C10.289 12.914 10.489 13.054 10.713 13.054C11.008 13.054 11.247 12.815 11.247 12.52C11.247 12.457 11.236 12.394 11.214 12.335L9.38098 7.356C9.16398 6.766 8.60198 6.375 7.97298 6.375H6.27598C5.64798 6.375 5.08598 6.767 4.86798 7.356L3.03398 12.334C3.01198 12.393 3.00098 12.456 3.00098 12.519C3.00098 12.814 3.23998 13.053 3.53498 13.053C3.75898 13.053 3.95898 12.913 4.03598 12.703L5.53998 8.625H6.03998L3.41498 15.75H5.34398V20.231C5.34298 20.655 5.68798 21 6.11198 21C6.53698 21 6.88098 20.656 6.88098 20.231V15.75H7.36898V20.231C7.36798 20.655 7.71298 21 8.13698 21C8.56198 21 8.90598 20.656 8.90598 20.231V15.75H10.835L8.20998 8.625H8.70998L10.212 12.704Z" fill="white"/><path d="M8.59399 4.48801C8.59399 3.66001 7.92199 2.98801 7.09399 2.98801C6.26599 2.98801 5.59399 3.66001 5.59399 4.48801C5.59399 5.31601 6.26599 5.98801 7.09399 5.98801C7.92199 5.98801 8.59399 5.31601 8.59399 4.48801Z" fill="white"/></svg>

<svg class="color-immutable" width="24" height="24" viewBox="0 0 24 24" fill="none" xmlns="http://www.w3.org/2000/svg"><g clip-path="url(#a)"><path d="M0 22.5v-21C0 .675.675 0 1.5 0h21c.825 0 1.5.675 1.5 1.5v21c0 .825-.675 1.5-1.5 1.5h-21C.675 24 0 23.325 0 22.5Z" fill="#2D327D"/><path d="M10.212 12.704a.534.534 0 1 0 1.002-.369L9.381 7.356a1.499 1.499 0 0 0-1.408-.981H6.276c-.628 0-1.19.392-1.408.981l-1.834 4.978a.534.534 0 1 0 1.002.369L5.54 8.625h.5L3.415 15.75h1.929v4.481a.768.768 0 1 0 1.537 0V15.75h.488v4.481a.768.768 0 1 0 1.537 0V15.75h1.929L8.21 8.625h.5l1.502 4.079ZM8.594 4.488a1.5 1.5 0 1 0-3.001.001 1.5 1.5 0 0 0 3.001-.001Z" fill="#fff"/></g><defs><clipPath id="a"><path fill="#fff" d="M0 0h24v24H0z"/></clipPath></defs></svg>
